X:477
T: Es verliebt sich einst ein Jngling (5-73), S. 118
N: P0747
O: Lothringen
S: MERKELBACH-PINCK, Angelika: Verklingende Weisen, Bd 5, Kassel 1962]
R: Liebe]
M: 4/4
L: 1/8
K: F
C3C | F2F2E3F | G2G2C2
E2 | G2G2F2G2 | A4
F2A2 | c2c2d3d | c2A2
B3A | G2C2c3B | A4
C3C | F2F2E3F | G2G2
C2E2 | G2G2F2G2 | A4
F2A2 | c2c2d3d | c2A2
B3A | G2C2A2G2 | F4

